X: 5
T: Whelan's
R: jig
M: 6/8
L: 1/8
K: Edor
|: E3 B^AB | EBG AFD | E^DE B2 c | dcB AFD |E3 B3 | GBG A3 | B/c/dB BAF | dAF FED :||: B^AB e3 | fed e3 | B^AB g2 e | fdB AF/G/A |B3 e3 | fed e2 f | g2 b f/g/af |[1 edB AF/G/A :|[2 edB AFD |]


Tune 1447	Setting 14833

